icons/linear-ele-office-tool-tag-setting.svg

<svg xmlns="http://www.w3.org/2000/svg" width="32px" height="32px" viewBox="0 0 32 32" version="1.1">
    <title>linear-ele-office-tool-tag-setting</title>
    <g id="linear-ele-office-tool-tag-setting" stroke-width="1" fill-rule="evenodd">
        <path d="M22.5,17.1339746 L27.6961524,20.1339746 C28.0055535,20.3126074 28.1961524,20.6427344 28.1961524,21 L28.1961524,27 C28.1961524,27.3572656 28.0055535,27.6873926 27.6961524,27.8660254 L22.5,30.8660254 C22.1905989,31.0446582 21.8094011,31.0446582 21.5,30.8660254 L16.3038476,27.8660254 C15.9944465,27.6873926 15.8038476,27.3572656 15.8038476,27 L15.8038476,21 C15.8038476,20.6427344 15.9944465,20.3126074 16.3038476,20.1339746 L21.5,17.1339746 C21.8094011,16.9553418 22.1905989,16.9553418 22.5,17.1339746 Z M16.624695,1.21913119 L26.624695,9.21913119 C26.8619103,9.40890338 27,9.69621628 27,10 L27,17.422 L25,16.267 L25,10.48 L16,3.28 L7,10.479 L7,28 L12.7,28 L16.093,30 L6,30 C5.44771525,30 5,29.5522847 5,29 L5,10 C5,9.69621628 5.13808972,9.40890338 5.37530495,9.21913119 L15.375305,1.21913119 C15.7405236,0.92695627 16.2594764,0.92695627 16.624695,1.21913119 Z M22,19.155 L17.803,21.577 L17.803,26.422 L22,28.844 L26.196,26.422 L26.196,21.577 L22,19.155 Z M22,22 C23.1045695,22 24,22.8954305 24,24 C24,25.1045695 23.1045695,26 22,26 C20.8954305,26 20,25.1045695 20,24 C20,22.8954305 20.8954305,22 22,22 Z M16,9 C18.209139,9 20,10.790861 20,13 C20,15.209139 18.209139,17 16,17 C13.790861,17 12,15.209139 12,13 C12,10.790861 13.790861,9 16,9 Z M16,11 C14.8954305,11 14,11.8954305 14,13 C14,14.1045695 14.8954305,15 16,15 C17.1045695,15 18,14.1045695 18,13 C18,11.8954305 17.1045695,11 16,11 Z" id="&#24418;&#29366;" fill-rule="nonzero" />
    </g>
</svg>

<svg xmlns="http://www.w3.org/2000/svg" viewBox="0 0 32 32"><path fill="currentColor" d="m22.5 17.134 5.196 3a1 1 0 0 1 .5.866v6a1 1 0 0 1-.5.866l-5.196 3a1 1 0 0 1-1 0l-5.196-3a1 1 0 0 1-.5-.866v-6a1 1 0 0 1 .5-.866l5.196-3a1 1 0 0 1 1 0M16.625 1.219l10 8A1 1 0 0 1 27 10v7.422l-2-1.155V10.48l-9-7.2-9 7.199V28h5.7l3.393 2H6a1 1 0 0 1-1-1V10a1 1 0 0 1 .375-.78l10-8a1 1 0 0 1 1.25 0M22 19.155l-4.197 2.422v4.845L22 28.844l4.196-2.422v-4.845zM22 22a2 2 0 1 1 0 4 2 2 0 0 1 0-4M16 9a4 4 0 1 1 0 8 4 4 0 0 1 0-8m0 2a2 2 0 1 0 0 4 2 2 0 0 0 0-4"/></svg>
